X:1
T:Cottage thatched with straw - watts
C:Taken down by F.W.B. from J. Watts, Nov. 1888.
%%VWML:SBG-1-1-184-0
F:http://www.vwml.org/record/SBG/1/1/184
Z:Original Sibleius Transcription by Martin and Shan Graebe
M:3/4
L:1/8
K:Eb
B>G | E>E E2 F2 | (3GGG G2 B>e | (3dBB c2 =A2 | B4 B>G | (3EEE E2 F3/|
(3GGG G2BB|B3/2 F/ GGF|E4 F3/2 G/|A2 A/A/A2 F3/2F|<G G/G2B3/2e/|
(3dBB c2=AA|B4 (3Bcd|e2 d2z2|c2 B2zEF/  (3GFG A2D2|E4 "Chorus"E3/2F/|(3GGG G2E2|
B4 E3/2F/|(3GGG B2G2|F4 (3Bcd|e2 d2z2|c2 B2z EF/ (3GFG A2D2|!fermata!E6 ||
T:Cottage thatched with straw - kidson
T:Taken down in Worcestershire by F. Kidson, Leeds. 1893
M:6/8
L:1/8
K:C
C/D/ | EE EF2G | A2 GC2G/A/ | cc EF2A | (G3G2)C/D/ | EEE F2F |GAG C2D | EEE F2B, | (C3C2)||
C | DD DD2D |EE EE2E | FF FF2F | (G3G2)(3G/A/B/ | c3B3 |A3G2C D/ | 
EG FE2D | (C3C2)(3G/A/B/ | c3B3 |A3G2 C/D// | EG FE2D | (C3C2) || 
EE EG2E |(D3D2) | C3D3 | EE EG2E | (D3D2)(3G/AB |B3B3 | A3G2C//D/ | EGFE2D | (C3C2) ||


